X:1
T:Reel [126]
T:Untitled
M:C|
L:1/8
R:Reel
B:C.J. Surtees music manuscript collection (Northumberland, 1819)
N:Tunes in several hands were entered into the ms.
N:The first strain is cognate with “Lady Augusta Murray” AKA “Mrs. J.W. Bourke”
Z:AK/Fiddler’s Companion
K:C
G,|C2 EC B,DDF|ECEG c2 GE|F2 AG FEDC|EDCB, C2:|
G|c2 ec GE E2|F2 AF DB, B,2|CDEF GABc|BGA^F G2g2|
g2 ag geag|fedc cBdc|BAGF FEAF|EB,DB, C2||

